Yaru++/actions/16/format-node-corner.svg

<svg viewBox="0 0 24 24" xmlns="http://www.w3.org/2000/svg">
  <path d="m17 4v1h-10.0878906c.0574926.1604624.087215.3295502.0878906.5-.0006756.1704498-.030398.3395376-.0878906.5h10.0878906v1h3v-3zm1 1h1v1h-1zm-13 1.9121094v10.0878906h-1v3h3v-3h-1v-10.0878906c-.1604624.0574926-.3295502.087215-.5.0878906-.1704498-.0006756-.3395376-.030398-.5-.0878906zm0 11.0878906h1v1h-1z" fill="#808080"/>
  <path d="m5.5 4a1.5 1.5 0 0 0 -1.5 1.5 1.5 1.5 0 0 0 1.5 1.5 1.5 1.5 0 0 0 1.5-1.5 1.5 1.5 0 0 0 -1.5-1.5zm0 1a.5.5 0 0 1 .5.5.5.5 0 0 1 -.5.5.5.5 0 0 1 -.5-.5.5.5 0 0 1 .5-.5z" fill="#1d99f3"/>
</svg>

<svg xmlns="http://www.w3.org/2000/svg" viewBox="0 0 24 24">
 <defs>
  <style id="current-color-scheme" type="text/css">
   .ColorScheme-Text { color:#808080; } .ColorScheme-Highlight { color:#1d99f3; }
  </style>
 </defs>
 <path style="fill:currentColor" class="ColorScheme-Text" d="M 17 4 L 17 5 L 6.9121094 5 C 6.969602 5.1604624 6.9993244 5.3295502 7 5.5 C 6.9993244 5.6704498 6.969602 5.8395376 6.9121094 6 L 17 6 L 17 7 L 20 7 L 20 4 L 17 4 z M 18 5 L 19 5 L 19 6 L 18 6 L 18 5 z M 5 6.9121094 L 5 17 L 4 17 L 4 20 L 7 20 L 7 17 L 6 17 L 6 6.9121094 C 5.8395376 6.969602 5.6704498 6.9993244 5.5 7 C 5.3295502 6.9993244 5.1604624 6.969602 5 6.9121094 z M 5 18 L 6 18 L 6 19 L 5 19 L 5 18 z"/>
 <path style="fill:currentColor" class="ColorScheme-Highlight" d="M 5.5 4 A 1.5 1.5 0 0 0 4 5.5 A 1.5 1.5 0 0 0 5.5 7 A 1.5 1.5 0 0 0 7 5.5 A 1.5 1.5 0 0 0 5.5 4 z M 5.5 5 A 0.5 0.5 0 0 1 6 5.5 A 0.5 0.5 0 0 1 5.5 6 A 0.5 0.5 0 0 1 5 5.5 A 0.5 0.5 0 0 1 5.5 5 z"/>
</svg>
